polaris-icons/icons/TextColorMajor.svg

<svg viewBox="0 0 20 20" xmlns="http://www.w3.org/2000/svg">
<path fill-rule="evenodd" clip-rule="evenodd" d="M9.99992 3C10.2968 2.99999 10.5658 3.17515 10.6859 3.44672L14.8862 12.9467C15.0537 13.3256 14.8824 13.7684 14.5035 13.9359C14.1247 14.1034 13.6818 13.9321 13.5143 13.5533L12.1643 10.5H7.83596L6.4862 13.5532C6.31872 13.9321 5.87584 14.1034 5.49699 13.936C5.11815 13.7685 4.9468 13.3256 5.11428 12.9468L9.31398 3.44675C9.43404 3.17518 9.703 3.00001 9.99992 3ZM8.49907 9H11.5011L9.99999 5.60482L8.49907 9Z" fill="#5C5F62"/>
<path d="M3.07495 16.25C3.07495 15.8358 3.41074 15.5 3.82495 15.5H16.175C16.5892 15.5 16.925 15.8358 16.925 16.25C16.925 16.6642 16.5892 17 16.175 17H3.82495C3.41074 17 3.07495 16.6642 3.07495 16.25Z" fill="#5C5F62"/>
</svg>

<svg xmlns="http://www.w3.org/2000/svg" viewBox="0 0 20 20"><path fill="#5C5F62" fill-rule="evenodd" d="M10 3a.75.75 0 0 1 .686.447l4.2 9.5a.75.75 0 1 1-1.372.606l-1.35-3.053H7.836l-1.35 3.053a.75.75 0 0 1-1.372-.606l4.2-9.5A.75.75 0 0 1 10 3ZM8.5 9H11.5L10 5.605 8.5 9Z" clip-rule="evenodd"/><path fill="#5C5F62" d="M3.075 16.25a.75.75 0 0 1 .75-.75h12.35a.75.75 0 0 1 0 1.5H3.825a.75.75 0 0 1-.75-.75Z"/></svg>
